X:1
T:Tell Me the Old, Old Story
C:William Howard Doane, 1867
Z:Terms:Public Domain
Z:Transcription:Converted on 2026-06-03 using nwctxt2abc from https://github.com/freehymns/translator
Z:Sources:The Cyber Hymnal(tm), from The Hymnbook (Richmond, Virginia: Presbyterian Church in the United States, 1955), # 403.
Z:Corrections:F4
I:score (1 2) (3 4)
I:voicecombine 1
L:1/1
M:4/4
Q:1/4=112
K:C
V:1 clef=treble stem=up
[M:4/4] E/4 E3/16 F/16 G/4 G/4 | A/2 G/4 \
w:A1 A2 A3 A4 A5 A6 A7
G/4 | c/4 c/4 c/4 (E3/16^F/16) | G3/4 \
w:B1 B2 B3 B4 B5_ B6
G/4 | c/4 c/4 (c/8B/8) (A/8G/8) | (A/4 B/4) c/4 \
w:C1 C2 C3 C4_ C5_ C6_ C7
A/4 | G/4 (F/8E/8) D/4 (G/8F/8) | E | \
w:D1 D2 D3_ D4 D5_ D6
(D3/16C/16) D3/16 E/16 F/4 F/4 | (E3/16F/16) G/2 \
w:E1_ E2 E3 E4 E5 E6_ E7
G/4 | (^F/8G/8) (A/8B/8) c/4 F/4 | G3/4 \
w:F1 F2_ F3_ F4 F5 F6
G/4 | c/4 c/4 (c/8B/8) (A/8G/8) | (A/4 B/4) c/4 \
w:G1 G2 G3 G4_ G5_ G6_ G7
A/4 | G/4 (F/8E/8) D/4 (G/8F/8) | E || \
w:H1 H2 H3_ H4 H5_ H6
E/4 E3/16 F/16 G/4 G/4 | A/2 G/2 | \
w:I1 I2 I3 I4 I5 I6 I7
B/4 B3/16 c/16 d/4 d/4 | d/2 c/2 | \
w:J1 J2 J3 J4 J5 J6 J7
e/4 e3/16 d/16 c/4 c/4 | c/2 A/4 \
w:K1 K2 K3 K4 K5 K6 K7
A/4 | G/4 c/4 (B/8c/8) d/4 | c |]
w:L1 L2 L3 L4_ L5 L6
V:2 clef=treble stem=down
C/4 C3/16 D/16 E/4 E/4 | F/2 E/4 \
E/4 | E/4 E/4 E/4 (C3/16^D/16) | (E/2 D/4) \
F/4 | E/4 E/4 (E/8G/8) (F/8E/8) | (F/4 G/4) A/4 \
F/4 | E/4 (D/8C/8) B,/4 (E/8D/8) | C | \
(B,3/16A,/16) B,3/16 C/16 D/4 D/4 | (C3/16D/16) E/2 \
E/4 | D/4 D/4 ^F/4 D/4 | D3/4 \
F/4 | E/4 E/4 (E/8G/8) (F/8E/8) | (F/4 G/4) A/4 \
F/4 | E/4 (D/8C/8) B,/4 (E/8D/8) | C || \
C/4 C3/16 D/16 E/4 E/4 | F/2 E/2 | \
F/4 F3/16 E/16 F/4 F/4 | F/2 E/2 | \
G/4 G3/16 F/16 E/4 G/4 | F/2 F/4 \
F/4 | E/4 E/4 (D/8E/8) F/4 | E |]
V:3 clef=bass stem=up
I:pos vocal above
[M:4/4] G,/4 G,3/16 G,/16 C/4 C/4 | C/2 C/4 \
C/4 | A,/4 A,/4 A,/4 A,/4 | (C/2 B,/4) \
G,/4 | G,/4 G,/4 G,/4 C/4 | C/2 C/4 \
C/4 | C/4 G,/4 G,/4 G,/4 | G, | \
G,/4 G,3/16 G,/16 G,/4 G,/4 | G,/4 C/2 \
C/4 | (A,/8B,/8) (C/8B,/8) A,/4 C/4 | B,3/4 \
G,/4 | G,/4 G,/4 G,/4 C/4 | C/2 C/4 \
C/4 | C/4 G,/4 G,/4 G,/4 | G, || \
G,/4 G,3/16 G,/16 C/4 C/4 | C/2 C/2 | \
D/4 D3/16 C/16 B,/4 B,/4 | B,/2 C/2 | \
C/4 C3/16 G,/16 G,/4 _B,/4 | A,/2 C/4 \
C/4 | C/4 G,/4 G,/4 G,/4 | G, |]
V:4 clef=bass stem=down
C,/4 C,3/16 C,/16 C,/4 C,/4 | C,/2 C,/4 \
C,/4 | A,/4 A,/4 A,/4 A,/4 | G,3/4 \
G,/4 | C,/4 C,/4 C,/4 C,/4 | F,/2 F,/4 \
F,/4 | G,/4 G,/4 G,,/4 G,,/4 | C, | \
G,,/4 G,,3/16 G,,/16 G,,/4 G,,/4 | C,/4 C,/2 \
C,/4 | D,/4 D,/4 D,/4 D,/4 | G,,3/4 \
G,/4 | C,/4 C,/4 C,/4 C,/4 | F,/2 F,/4 \
F,/4 | G,/4 x/4G,,/4 G,,/4 | C, || \
C,/4 C,3/16 C,/16 C,/4 C,/4 | F,/2 C,/2 | \
G,/4 G,3/16 G,/16 G,/4 G,/4 | G,/2 C,/2 | \
C,/4 C,3/16 C,/16 C,/4 C,/4 | F,/2 F,/4 \
F,/4 | G,/4 G,/4 G,/4 G,,/4 | C, |]

